X:430
T:Donegal Reel, The
M:4/4
S:Charlie Harris, Willie Clancy Summer School 1998
R:reel
L:1/8
K:D
A,|:D2 DE FDFA|dFAF BFAF|E3 F GFGA|(3Bcd AF EGFE|
D3 E FDFA|B~F3 ABde|fgef dBAG|1 (3FAF EF D3 A,:|2 (3FAF EF D3 A|
|:defg afdf|afdf a3 g|edef gfed|cdef g2 fe|
defg afdf|afdf abag|(3faf ef dBAG|1 (3FAF EF D3 A:|2 (3FAF EF D4||
